src/assets/icon/notifications.svg

<svg width="100" height="100" viewBox="0 0 100 100" fill="none" xmlns="http://www.w3.org/2000/svg">
<g id="notifications" clip-path="url(#clip0_237_72909)">
<path id="Union" fill-rule="evenodd" clip-rule="evenodd" d="M8.0001 80.9999H49.9999H50.0001H91.9999C91.9999 80.9999 92.8175 76.6085 91.9999 73.9999C91.3662 71.9781 90.1131 70.9349 88.7696 69.8166C87.8302 69.0346 86.8466 68.2158 85.9999 66.9999C81.1924 60.0969 80.5891 51.7935 79.9818 43.4361C79.2236 33.0019 78.4594 22.4833 69.4999 14.4999C64.4793 10.0264 54 5 54 5C54.1133 3.05157 52.4654 7.72866e-05 50 0C47.5346 7.72866e-05 45.8867 3.05157 46 5C46 5 35.5207 10.0264 30.5001 14.4999C21.5407 22.4833 20.7764 33.0019 20.0182 43.4361C19.4109 51.7935 18.8076 60.0969 14.0001 66.9999C13.1533 68.2158 12.1698 69.0346 11.2304 69.8166C9.88695 70.9349 8.6338 71.9781 8.0001 73.9999C7.1825 76.6085 8.0001 80.9999 8.0001 80.9999ZM36.1418 90.7403C35.388 88.9204 35 86.9698 35 85L65 85C65 86.9698 64.612 88.9204 63.8582 90.7402C63.1044 92.5601 61.9995 94.2137 60.6066 95.6066C59.2137 96.9995 57.5601 98.1044 55.7403 98.8582C53.9204 99.612 51.9698 100 50 100C48.0302 100 46.0796 99.612 44.2598 98.8582C42.4399 98.1044 40.7863 96.9995 39.3934 95.6066C38.0005 94.2137 36.8956 92.5601 36.1418 90.7403Z" fill="url(#paint0_linear_237_72909)"/>
<path id="Vector 379" d="M39 13C33.5 14 26.5 22 26 30C30 23 31.5 19 39 13Z" fill="white"/>
</g>
<defs>
<linearGradient id="paint0_linear_237_72909" x1="50" y1="0" x2="50" y2="100" gradientUnits="userSpaceOnUse">
<stop stop-color="#AB750F"/>
<stop offset="0.516" stop-color="#D8A956"/>
<stop offset="1" stop-color="#AB750F"/>
</linearGradient>
<clipPath id="clip0_237_72909">
<rect width="100" height="100" fill="white"/>
</clipPath>
</defs>
</svg>

<svg xmlns="http://www.w3.org/2000/svg" width="100" height="100" fill="none" xmlns:v="https://vecta.io/nano"><g clip-path="url(#B)"><path fill-rule="evenodd" d="M8 81h42 0 42s.818-4.391 0-7c-.634-2.022-1.887-3.065-3.23-4.183-.939-.782-1.923-1.601-2.77-2.817-4.807-6.903-5.411-15.206-6.018-23.564C79.224 33.002 78.459 22.483 69.5 14.5 64.479 10.026 54 5 54 5c.113-1.948-1.535-5-4-5s-4.113 3.052-4 5c0 0-10.479 5.026-15.5 9.5-8.959 7.983-9.724 18.502-10.482 28.936C19.411 51.794 18.808 60.097 14 67c-.847 1.216-1.83 2.035-2.77 2.817C9.887 70.935 8.634 71.978 8 74c-.818 2.609 0 7 0 7zm28.142 9.74A15 15 0 0 1 35 85h30a15 15 0 0 1-4.393 10.607A15 15 0 0 1 50 100a15 15 0 0 1-10.607-4.393 15 15 0 0 1-3.252-4.866z" fill="url(#A)"/><path d="M39 13c-5.5 1-12.5 9-13 17 4-7 5.5-11 13-17z" fill="#fff"/></g><defs><linearGradient id="A" x1="50" y1="0" x2="50" y2="100" gradientUnits="userSpaceOnUse"><stop stop-color="#ab750f"/><stop offset=".516" stop-color="#d8a956"/><stop offset="1" stop-color="#ab750f"/></linearGradient><clipPath id="B"><path fill="#fff" d="M0 0h100v100H0z"/></clipPath></defs></svg>
